X:1
T:Title
%%score { ( 1 3 5 ) | ( 2 4 ) }
L:1/8
M:4/4
K:Bb
V:1 treble nm="Grand Piano"
V:3 treble 
V:5 treble 
V:2 bass 
V:4 bass 
V:1
 z4 z2[Q:1/4=100] [DF]2 | [DB]2 [DB][Ec] BFD[DF] | [DB]2 [DB][Ec] [DB]3 [FB] | c2 cd cAFA | %4
 c2 cd c3 c | d2 de dBGF | B2 Bc B2 d2 | c2 cd c2 A2 | [=EG]4 z4 | e6 z2 | G2 F2 G2 F2 | d6 z2 | %12
 G2 z2 G2 z2 | [C=EB] [CEB]2 [CEc] [CEB]2 [B,EG]2 | c c2 d c2 A2 | d4 =e4 | [Af]3 F F2 F2 | e6 z2 | %18
 G2 F2 G2 F2 | d6 z2 | G2 z2 G2 z2 | B B2 B c2 F2 | d2 B2 [Be]2 [B=e]2 | [Af]6 [EFA]2 | %24
[M:3/4] [DFB]6 |] %25
V:2
 z4 z2 [B,,B,]2 | [B,,F,]2 [B,,F,][B,,F,] [B,,F,]2 [B,,F,][B,,F,] | %2
 [B,,F,]2 [B,,F,][B,,F,] [B,,F,]3 [D,B,] | %3
 [F,A,F]2 [F,A,F][F,B,F] [F,A,F]2 [F,A,][K:treble][F,A,F] | %4
 [F,A,F]2 [F,A,F][F,B,F] [F,A,F]3 [F,A,F] | [B,F]2 [B,F][B,G] FD[B,D][B,D] | %6
 [G,DG]2 [G,DG][G,EG] [G,DG]2 [B,DB]2 | [A,CA]2 [A,CA][B,DB] [A,CA]2[K:bass] [F,A,F]2 | C2 z2 z4 | %9
 [CA]A,[K:bass]G,F, C2 [F,A,E]2 | [F,A,E]4 [F,A,E]4 | [B,F]A,[K:bass]G,F, B,2 z A | %12
 z2 F2 z2[K:treble] F2 | G,[K:bass] G,2 G, C,2 C,2 | %14
 [F,A,F][K:treble] [F,A,F]2 [F,B,F] [F,A,F]2 [F,CF]2 | [B,F]2 [A,C]>[A,C] [G,B,G]2[K:bass] [C,C]2 | %16
 [F,C]3 F, F,2 F,2 | [CA]A,[K:bass]G,F, C2 [F,A,E]2 | [F,A,E]4 [F,A,E]4 | %19
 [B,F]A,[K:bass]G,F, B,2 z A | z2 F2 B,,4 | [G,B,D] [G,B,D]2 [G,B,D] [F,A,F]2 [F,A,]2 | %22
 [B,F]2 [_A,DF]2[K:bass] [G,E]2 [^F,B,]2 | [F,C]6 F,2 |[M:3/4] B,,6 |] %25
V:3
 x8 | z4 D2 z2 | x8 | x8 | x8 | x8 | x8 | x8 | z2 B,2 F4 | z A A2 z dcA | x8 | z F F2 z c .[DB]2 | %12
 [B,D]4 [B,D]4 | x8 | x8 | z4 z2 B2 | x8 | z A A2 z dcA | x8 | z F F2 z c .[DB]2 | %20
 [B,D]4 [B,D]2- [B,DF]2 | x8 | x8 | x8 |[M:3/4] x6 |] %25
V:4
 x8 | x8 | x8 | x7[K:treble] x | x8 | z4 B,2 z2 | x8 | x6[K:bass] x2 | C,4 [F,A,]4 | %9
 x2[K:bass] x6 | x8 | z4[K:bass] z2 [B,,F,]2 | B,,4 B,,4[K:treble] | x[K:bass] x7 | %14
 x[K:treble] x7 | x6[K:bass] x2 | x8 | x2[K:bass] x6 | x8 | z4[K:bass] z2 [B,,F,]2 | B,,4 z4 | x8 | %22
 x4[K:bass] x4 | x8 |[M:3/4] x6 |] %25
V:5
 x8 | x8 | x8 | x8 | x8 | x8 | x8 | x8 | x8 | z4 A2 z2 | x8 | z4 F2 z2 | x8 | x8 | x8 | %15
 z2 ^F>F z2 z =e | x8 | z4 A2 z2 | x8 | z4 F2 z2 | x8 | x8 | x8 | x8 |[M:3/4] x6 |] %25

